images_breeze_svg/cmd/sc_selectdb.svg

<svg viewBox="0 0 16 16" xmlns="http://www.w3.org/2000/svg"><path d="m2 2v1 10 1h5v-1-3-1-2h2 1 3 1v-1-3-1zm1 1h3v3h-3zm4 0h2v3h-2zm3 0h3v3h-3zm-7 4h3v2h-3zm0 3h3v3h-3z" fill="#4d4d4d"/><path d="m8 8 .00363 6.048611 1.7600369-2.048611h3.2363331z" fill="#1d99f3" stroke-width=".62037"/></svg>

<?xml version="1.0" encoding="UTF-8" standalone="no"?>
<svg
   xmlns:dc="http://purl.org/dc/elements/1.1/"
   xmlns:cc="http://creativecommons.org/ns#"
   xmlns:rdf="http://www.w3.org/1999/02/22-rdf-syntax-ns#"
   xmlns:svg="http://www.w3.org/2000/svg"
   xmlns="http://www.w3.org/2000/svg"
   xmlns:sodipodi="http://sodipodi.sourceforge.net/DTD/sodipodi-0.dtd"
   xmlns:inkscape="http://www.inkscape.org/namespaces/inkscape"
   viewBox="0 0 16 16"
   version="1.1"
   id="svg4"
   sodipodi:docname="sc_selectdb.svg"
   inkscape:version="0.92.4 (unknown)"
   inkscape:export-filename="/home/rizmut/Dokumen/Rizmut/Github/libreoffice-style-breeze/images_breeze/cmd/sc_selectdb.png"
   inkscape:export-xdpi="96"
   inkscape:export-ydpi="96">
  <metadata
     id="metadata10">
    <rdf:RDF>
      <cc:Work
         rdf:about="">
        <dc:format>image/svg+xml</dc:format>
        <dc:type
           rdf:resource="http://purl.org/dc/dcmitype/StillImage" />
      </cc:Work>
    </rdf:RDF>
  </metadata>
  <defs
     id="defs8" />
  <sodipodi:namedview
     pagecolor="#ffffff"
     bordercolor="#666666"
     borderopacity="1"
     objecttolerance="10"
     gridtolerance="10"
     guidetolerance="10"
     inkscape:pageopacity="0"
     inkscape:pageshadow="2"
     inkscape:window-width="1360"
     inkscape:window-height="714"
     id="namedview6"
     showgrid="true"
     inkscape:zoom="41.7193"
     inkscape:cx="7.8343503"
     inkscape:cy="5.2974736"
     inkscape:window-x="0"
     inkscape:window-y="28"
     inkscape:window-maximized="1"
     inkscape:current-layer="svg4">
    <inkscape:grid
       type="xygrid"
       id="grid817" />
  </sodipodi:namedview>
  <path
     d="m 2,2 v 1 10 1 H 7 V 13 10 9 7 h 2 1 3 1 V 6 3 2 Z M 3,3 H 6 V 6 H 3 Z M 7,3 H 9 V 6 H 7 Z m 3,0 h 3 V 6 H 10 Z M 3,7 H 6 V 9 H 3 Z m 0,3 h 3 v 3 H 3 Z"
     id="path2"
     inkscape:connector-curvature="0"
     style="fill:#4d4d4d"
     sodipodi:nodetypes="cccccccccccccccccccccccccccccccccccccccccc" />
  <path
     inkscape:connector-curvature="0"
     style="fill:#1d99f3;fill-opacity:1;stroke-width:0.62037033"
     d="M 8,8 8.00363,14.048611 9.7636669,12 H 13 Z"
     id="path2-8"
     sodipodi:nodetypes="ccccc" />
</svg>
